X: 16384
T: Guzzle Together
R: slip jig
M: 9/8
K: Amixolydian
|:c2e ecf ecA|c2e ece f2e|c2e ecf aeg|fdf ece g2e:|
|:~a3 aec g2e|~a3 aec g2b|aba aec aeg|fdf ece g2e:|
|:cde ecf ecA|cde ece g2e|cde ecf aeg|fdf ece g2e:|
|:A2A ABG A2E|~A3 ABE G2B|~A3 ABA Ace|fdf ece g2e:|

